X: 1
T: Brendan Keenan's
M: 6/8
L: 1/8
R: jig
K: Amin
|: A | EAA AGE | G3 GED | E2A AGE | AB/2c/2d e2A |
EAA AGE | G3 GAB | c2e d2B | A3 A2 :|
|:d | eAe age | g3 ged | e3 age | g3 ged |
e2a age | d3 GAB |c2e d2B | A3 A2 :|
